X:345
T: MICH HAT DAS GLUECK GEFUEHRT
N: E0973A
O: Europa, Mitteleuropa, Deutschland, Oderberg, Hohen - Saathen
R: Tanz - Lied, Reigen
M: 3/4
L: 1/8
K: A
 | A2E2A2 | A2GAB2 |
c2F2B2 | G2F2E2 |
A2E2A2 | A2GAB2 |
c2F2B2 | G2F2E2 |
B2B2B2 | B3AB2 |
A2c2c2 | c2B2z2 |
A2c2e2 | A2GFE2 |
AAcBG2 | B2A2z2

@@@ Tune index: 4658
